crypto/xmr.svg

<svg fill="none" height="32" viewBox="0 0 32 32" width="32" xmlns="http://www.w3.org/2000/svg"><path d="m32 16c0 8.8366-7.1634 16-16 16-8.83656 0-16-7.1634-16-16 0-8.83656 7.16344-16 16-16 8.8366 0 16 7.16344 16 16z" fill="#fff"/><path d="m15.9998 1.5c-8.00646 0-14.4998 6.49269-14.4998 14.4997 0 1.6008.25932 3.1403.73868 4.5803h4.33623v-12.19989l9.42489 9.42509 9.4249-9.42509v12.19989h4.3366c.4794-1.44.7387-2.9795.7387-4.5803 0-8.00701-6.4933-14.4997-14.5002-14.4997z" fill="#f60"/><path d="m9.71972 15.8584v7.6766h-6.10986c2.54532 4.176 7.14244 6.965 12.38984 6.965s9.8449-2.789 12.3898-6.965h-6.1094v-7.6766l-6.2804 6.2806z" fill="#4c4c4c"/></svg>

<svg width="32" height="32" fill="none" xmlns="http://www.w3.org/2000/svg"><path d="M32 16c0 8.837-7.163 16-16 16S0 24.837 0 16 7.163 0 16 0s16 7.163 16 16Z" fill="#fff"/><path d="M16 1.5C7.993 1.5 1.5 7.993 1.5 16c0 1.6.26 3.14.739 4.58h4.336V8.38L16 17.805l9.425-9.425v12.2h4.336c.48-1.44.739-2.98.739-4.58 0-8.007-6.493-14.5-14.5-14.5Z" fill="#F60"/><path d="M9.72 15.858v7.677H3.61C6.155 27.711 10.752 30.5 16 30.5c5.247 0 9.845-2.789 12.39-6.965h-6.11v-7.677L16 22.14l-6.28-6.28Z" fill="#4C4C4C"/></svg>
